T: Miss Elspeth Campbell
M: 4/4
L: 1/8
K: Amix
ed|c<e A2 ABcd|edcA a2ef|g2ed BAGg|edBA G2ed|c<e A2 ABcd|edcA a2 ef|g2ed BABG|A2 A/A/A A2:|(3efg|a2ag aged|cdef g2 (3efg|a2ed BAGg|edBA (3GAB ce|a2ag aged|(3Bcd ef g2fg|a2ed BABG|A2 A/A/A A2 (3efg|a2ag aged|cdef g2 (3efg|a2ed BAGg|edBA G2ed|c<e A2 ABcd|edcA a2 ef|g2ed BABG|A2 A/A/A A2||
